X: 100040
M: 3/4
L: 1/8
K: Bb
(uF=E) |\
c2z2(ugf) | c2z2(ued) | A2z2(ucB) | F2z2(uF=E) |
c3(ugfe) | A3(uedc) | B6- | B2z2:|
|: (ud^c) |\
d2D2F2 | B2(.d3.e) | (d6 | B4).c.=B |\
c2F2A2 | c2(.g3.f) | (^c6 | d4).d.e |
f2e2d2 | c2=B2c2 | e6 | (G4^F2) |\
(=F2e2d2) | (E2c3d) | B6- | B2"_Fine."z2 :|



